icons/svg/phone-log.svg

﻿<?xml version="1.0" encoding="utf-8"?>
<!DOCTYPE svg PUBLIC "-//W3C//DTD SVG 1.1//EN" "http://www.w3.org/Graphics/SVG/1.1/DTD/svg11.dtd">
<svg xmlns="http://www.w3.org/2000/svg" xmlns:xlink="http://www.w3.org/1999/xlink" version="1.1" baseProfile="full" width="24" height="24" viewBox="0 0 24.00 24.00" enable-background="new 0 0 24.00 24.00" xml:space="preserve">
	<path fill="#000000" fill-opacity="1" fill-rule="evenodd" stroke-width="0.2" stroke-linejoin="round" d="M 19.9994,15.4981C 20.5524,15.4981 20.9994,15.9451 20.9994,16.4981L 20.9994,19.9981C 20.9994,20.5511 20.5524,20.9981 19.9994,20.9981C 10.6104,20.9981 2.99939,13.3867 2.99939,3.99807C 2.99939,3.44507 3.44637,2.99807 3.99939,2.99807L 7.49939,2.99807C 8.05241,2.99807 8.49939,3.44507 8.49939,3.99807C 8.49939,5.24507 8.69942,6.44607 9.06637,7.57007C 9.1794,7.91607 9.09737,8.31006 8.82239,8.58506L 6.62235,10.7931C 8.0634,13.6241 10.3784,15.9371 13.2114,17.3781L 15.4114,15.1751C 15.6864,14.9001 16.0814,14.8181 16.4274,14.9301C 17.5524,15.2971 18.7524,15.4981 19.9994,15.4981 Z M 12,2.00001L 14,2.00001L 14,4.00001L 12,4.00001L 12,2.00001 Z M 16,2.00001L 22,2.00001L 22,4.00001L 16,4.00001L 16,2.00001 Z M 12,6.00001L 14,6.00001L 14,8L 12,8L 12,6.00001 Z M 16,6L 22,6L 22,8L 16,8L 16,6 Z M 12,10L 14,10L 14,12L 12,12L 12,10 Z M 16,10L 22,10L 22,12L 16,12L 16,10 Z "/>
</svg>

<svg xmlns="http://www.w3.org/2000/svg" version="1.1" baseProfile="full" width="24" height="24" viewBox="0 0 24.00 24.00" xml:space="preserve"><path fill="#000" fill-opacity="1" fill-rule="evenodd" stroke-width=".2" stroke-linejoin="round" d="M20 15.498c.552 0 1 .447 1 1v3.5c0 .553-.448 1-1 1-9.39 0-17-7.61-17-17 0-.553.446-1 1-1h3.5c.552 0 1 .447 1 1 0 1.247.2 2.448.566 3.572.113.346.03.74-.244 1.015l-2.2 2.208c1.44 2.83 3.756 5.144 6.59 6.585l2.2-2.203c.274-.275.67-.357 1.015-.245 1.125.367 2.325.568 3.572.568zM12 2h2v2h-2V2zm4 0h6v2h-6V2zm-4 4h2v2h-2V6zm4 0h6v2h-6V6zm-4 4h2v2h-2v-2zm4 0h6v2h-6v-2z"/></svg>
